X:384
T:Paddy Fahy's
R:jig
C:Paddy Fahy
H:Also in D, #390
Z:id:hn-jig-384
M:6/8
L:1/8
K:G
GBd g2a | gfd cBc | dBG =fef | ag=f e/f/ge |
GBd g2a | gfd cBc | dge fdc | ABA G3 :|
|: ~g3 bag | fd^c d2e | =fef agf | e2c cBA |
G2g bag | fd^c d2^c | dge fdc | ABA G3 :|

